svgs/duotone/gifts.svg

<svg xmlns="http://www.w3.org/2000/svg" viewBox="0 0 640 512"><!--! Font Awesome Pro 6.0.0-alpha3 by @fontawesome - https://fontawesome.com License - https://fontawesome.com/license (Commercial License) --><defs><style>.fa-secondary{opacity:.4}</style></defs><path class="fa-primary" d="M240.6 194.1c1.875-30.88 17.25-61.25 43.1-79.87C279.4 103.5 268.8 96.01 256 96.01h-224c-17.75 0-32 14.25-32 31.1v351.1c0 17.75 14.25 32 32 32h168.9c-5.5-9.501-8.875-20.25-8.875-32V256C192 226.1 212.8 201 240.6 194.1zM640 344h-184V272h63.68c25.52 0 49.27-13.15 61.98-34.31c6.762-11.25 10.34-24.19 10.34-37.43c0-35.52-26.98-72.25-72.13-72.25c-35.04 0-66.21 26.67-87.87 75.3c-12.72-28.92-40.54-75.3-87.88-75.3c-45.15 0-72.13 36.73-72.13 72.25c0 13.24 3.58 26.18 10.35 37.44C295.1 258.9 318.8 272 344.3 272h63.68v72H224v48h183.1L408 512h48l-.0001-120h184V344zM519.9 176c17.75 0 24.12 14.5 24.12 24.25c0 2.219-.2499 7.322-3.49 12.71C536.2 220.1 528 224 519.7 224l-44.3 .0052C484.3 203.8 501.3 176 519.9 176zM344.3 224c-8.34 0-16.54-3.873-20.83-11.02c-3.24-5.391-3.49-10.49-3.49-12.71c0-9.75 6.375-24.25 24.12-24.25c18.62 0 35.62 27.37 44.5 47.99L344.3 224z"/><path class="fa-secondary" d="M257.3 74.02c7.25-5.125 9-15.12 3.75-22.25l-9.25-13c-5.125-7.25-15.12-9-22.38-3.75l-32 22.88l11.5-30.62C212 19.02 207.8 9.777 199.5 6.777l-15-5.625C176.3-1.973 167 2.277 163.9 10.53L144 63.52l-19.88-53.12c-3.125-8.25-12.38-12.5-20.62-9.375l-15 5.625C80.25 9.777 76 19.02 79.25 27.27l11.5 30.5L58.63 35.02c-7.25-5.125-17.25-3.5-22.38 3.75l-9.25 13c-5.125 7.125-3.5 17.12 3.75 22.25l30.61 21.99h165.3L257.3 74.02zM282.3 237.7C279.8 233.4 278.1 228.7 276.4 224H256c-17.67 0-31.1 14.33-31.1 32L224 344h183.1V272h-63.68C318.8 272 295.1 258.9 282.3 237.7zM224 480c0 17.67 14.33 32 31.1 32h152l-.0001-120H224L224 480zM608 224h-20.42c-1.631 4.701-3.344 9.4-5.918 13.69C568.9 258.9 545.2 272 519.7 272h-63.68v72h184l-.0001-87.99C640 238.3 625.7 224 608 224zM456 512h151.1c17.67 0 32-14.33 32-32l.0001-88h-184L456 512z"/></svg>

<svg xmlns="http://www.w3.org/2000/svg" viewBox="0 0 640 512"><!-- Font Awesome Pro 6.0.0-alpha2 by @fontawesome - https://fontawesome.com License - https://fontawesome.com/license (Commercial License) --><defs><style>.fa-secondary{opacity:.4}</style></defs><path d="M257.233 74.023C264.483 68.898 266.233 58.898 260.983 51.773L251.733 38.773C246.608 31.523 236.608 29.773 229.358 35.023L197.358 57.898L208.858 27.273C211.983 19.023 207.733 9.777 199.483 6.777L184.483 1.152C176.233 -1.973 166.983 2.277 163.858 10.527L143.983 63.523L124.108 10.402C120.983 2.152 111.733 -2.098 103.483 1.027L88.483 6.652C80.233 9.777 75.983 19.023 79.233 27.273L90.733 57.773L58.608 35.023C51.358 29.898 41.358 31.523 36.233 38.773L26.983 51.773C21.858 58.898 23.483 68.898 30.733 74.023L61.325 96H226.641L257.233 74.023ZM282.333 237.705C279.755 233.414 278.087 228.703 276.456 224H255.983C238.309 224 223.983 238.326 223.983 256V344H407.983V272H344.307C318.788 272 295.038 258.854 282.333 237.705ZM223.983 480C223.983 497.672 238.309 512 255.983 512H407.983V392H223.983V480ZM607.983 224H587.51C585.88 228.701 584.215 233.408 581.641 237.693C568.928 258.854 545.178 272 519.659 272H455.983V344H639.983V256C639.983 238.326 625.657 224 607.983 224ZM455.983 512H607.983C625.657 512 639.983 497.672 639.983 480V392H455.983V512Z" class="fa-secondary"/><path d="M240.625 194.123C242.5 163.246 257.875 132.873 284.625 114.251C279.375 103.5 268.75 96 256 96H32C14.25 96 0 110.251 0 127.998V479.998C0 497.749 14.25 512 32 512H200.875C195.375 502.499 192 491.749 192 479.998V256.001C192 226.125 212.75 200.998 240.625 194.123ZM640 344H456V272H519.676C545.195 272 568.945 258.854 581.658 237.693C588.42 226.439 592 213.488 592 200.25C592 164.734 565.021 128 519.875 128C484.836 128 453.668 154.762 432.004 203.391C419.283 174.469 391.465 128 344.125 128C298.979 128 272 164.734 272 200.25C272 213.488 275.58 226.439 282.35 237.705C295.055 258.854 318.805 272 344.324 272H408V344H224V392H408V512H456V392H640V344ZM519.875 176C537.625 176 544 190.5 544 200.25C544 202.469 543.75 207.586 540.51 212.977C536.215 220.127 528.016 224 519.676 224H475.375C484.25 203.75 501.25 176 519.875 176ZM344.324 224C335.984 224 327.785 220.127 323.49 212.977C320.25 207.586 320 202.469 320 200.25C320 190.5 326.375 176 344.125 176C362.75 176 379.75 203.375 388.625 224H344.324Z" class="fa-primary"/></svg>
